(Fork_end_contour)
(T1 D=3.175 CR=0 - ZMIN=-1.7 - flat end mill)
G90 G94
G17
G21
(-Attention- Property Safe Retracts is set to Clearance Height.)
(Ensure the clearance height will clear the part and or fixtures.)
(Raise the Z-axis to a safe height before starting the program.)
G0 Z15
(When using Fusion for Personal Use, the feedrate of rapid)
(moves is reduced to match the feedrate of cutting moves,)
(which can increase machining time. Unrestricted rapid moves)
(are available with a Fusion Subscription.)

(2D Contour1)
T1
S5000 M3
G17 G90 G94
G54
M8
G0 X2.504 Y6.176
Z12
G1 Z2 F3500
Z0.635 F1166.7
Z0.167
X2.512 Z0.097 F3500
X2.536 Y6.178 Z0.03
X2.573 Y6.181 Z-0.03
X2.624 Y6.185 Z-0.081
X2.684 Y6.189 Z-0.119
X2.751 Y6.195 Z-0.142
X2.821 Y6.2 Z-0.15
X3.137 Y6.225
G3 X3.429 Y6.566 I-0.025 J0.317
G1 X3.42 Y6.702
X1.419 Y28.857
X1.413 Y29
Y41
G2 X3 Y42.588 I1.587 J0
G1 X15
G2 X16.587 Y41 I0 J-1.588
G1 Y29
X16.581 Y28.856
X14.587 Y6.922
G2 X3.429 Y6.566 I-5.587 J0.078
G3 X3.088 Y6.858 I-0.317 J-0.025
G1 X2.772 Y6.833
X2.701 Y6.828 Z-0.142
X2.634 Y6.823 Z-0.119
X2.574 Y6.818 Z-0.081
X2.524 Y6.814 Z-0.03
X2.486 Y6.811 Z0.03
X2.463 Y6.809 Z0.097
X2.455 Z0.167
Z2
X2.504 Y6.176
Z0.485 F1166.7
Z0.017
X2.512 Z-0.053 F3500
X2.536 Y6.178 Z-0.12
X2.573 Y6.181 Z-0.18
X2.624 Y6.185 Z-0.231
X2.684 Y6.189 Z-0.269
X2.751 Y6.195 Z-0.292
X2.821 Y6.2 Z-0.3
X3.137 Y6.225
G3 X3.429 Y6.566 I-0.025 J0.317
G1 X3.42 Y6.702
X1.419 Y28.857
X1.413 Y29
Y41
G2 X3 Y42.588 I1.587 J0
G1 X15
G2 X16.587 Y41 I0 J-1.588
G1 Y29
X16.581 Y28.856
X14.587 Y6.922
G2 X3.429 Y6.566 I-5.587 J0.078
G3 X3.088 Y6.858 I-0.317 J-0.025
G1 X2.772 Y6.833
X2.701 Y6.828 Z-0.292
X2.634 Y6.823 Z-0.269
X2.574 Y6.818 Z-0.231
X2.524 Y6.814 Z-0.18
X2.486 Y6.811 Z-0.12
X2.463 Y6.809 Z-0.053
X2.455 Z0.017
Z2
X2.504 Y6.176
Z0.335 F1166.7
Z-0.133
X2.512 Z-0.203 F3500
X2.536 Y6.178 Z-0.27
X2.573 Y6.181 Z-0.33
X2.624 Y6.185 Z-0.381
X2.684 Y6.189 Z-0.419
X2.751 Y6.195 Z-0.442
X2.821 Y6.2 Z-0.45
X3.137 Y6.225
G3 X3.429 Y6.566 I-0.025 J0.317
G1 X3.42 Y6.702
X1.419 Y28.857
X1.413 Y29
Y41
G2 X3 Y42.588 I1.587 J0
G1 X15
G2 X16.587 Y41 I0 J-1.588
G1 Y29
X16.581 Y28.856
X14.587 Y6.922
G2 X3.429 Y6.566 I-5.587 J0.078
G3 X3.088 Y6.858 I-0.317 J-0.025
G1 X2.772 Y6.833
X2.701 Y6.828 Z-0.442
X2.634 Y6.823 Z-0.419
X2.574 Y6.818 Z-0.381
X2.524 Y6.814 Z-0.33
X2.486 Y6.811 Z-0.27
X2.463 Y6.809 Z-0.203
X2.455 Z-0.133
Z2
X2.504 Y6.176
Z0.185 F1166.7
Z-0.283
X2.512 Z-0.353 F3500
X2.536 Y6.178 Z-0.42
X2.573 Y6.181 Z-0.48
X2.624 Y6.185 Z-0.531
X2.684 Y6.189 Z-0.569
X2.751 Y6.195 Z-0.592
X2.821 Y6.2 Z-0.6
X3.137 Y6.225
G3 X3.429 Y6.566 I-0.025 J0.317
G1 X3.42 Y6.702
X1.419 Y28.857
X1.413 Y29
Y41
G2 X3 Y42.588 I1.587 J0
G1 X15
G2 X16.587 Y41 I0 J-1.588
G1 Y29
X16.581 Y28.856
X14.587 Y6.922
G2 X3.429 Y6.566 I-5.587 J0.078
G3 X3.088 Y6.858 I-0.317 J-0.025
G1 X2.772 Y6.833
X2.701 Y6.828 Z-0.592
X2.634 Y6.823 Z-0.569
X2.574 Y6.818 Z-0.531
X2.524 Y6.814 Z-0.48
X2.486 Y6.811 Z-0.42
X2.463 Y6.809 Z-0.353
X2.455 Z-0.283
Z2
X2.504 Y6.176
Z0.035 F1166.7
Z-0.433
X2.512 Z-0.503 F3500
X2.536 Y6.178 Z-0.57
X2.573 Y6.181 Z-0.63
X2.624 Y6.185 Z-0.681
X2.684 Y6.189 Z-0.719
X2.751 Y6.195 Z-0.742
X2.821 Y6.2 Z-0.75
X3.137 Y6.225
G3 X3.429 Y6.566 I-0.025 J0.317
G1 X3.42 Y6.702
X1.419 Y28.857
X1.413 Y29
Y41
G2 X3 Y42.588 I1.587 J0
G1 X15
G2 X16.587 Y41 I0 J-1.588
G1 Y29
X16.581 Y28.856
X14.587 Y6.922
G2 X3.429 Y6.566 I-5.587 J0.078
G3 X3.088 Y6.858 I-0.317 J-0.025
G1 X2.772 Y6.833
X2.701 Y6.828 Z-0.742
X2.634 Y6.823 Z-0.719
X2.574 Y6.818 Z-0.681
X2.524 Y6.814 Z-0.63
X2.486 Y6.811 Z-0.57
X2.463 Y6.809 Z-0.503
X2.455 Z-0.433
Z2
X2.504 Y6.176
Z-0.115 F1166.7
Z-0.583
X2.512 Z-0.653 F3500
X2.536 Y6.178 Z-0.72
X2.573 Y6.181 Z-0.78
X2.624 Y6.185 Z-0.831
X2.684 Y6.189 Z-0.869
X2.751 Y6.195 Z-0.892
X2.821 Y6.2 Z-0.9
X3.137 Y6.225
G3 X3.429 Y6.566 I-0.025 J0.317
G1 X3.42 Y6.702
X1.419 Y28.857
X1.413 Y29
Y41
G2 X3 Y42.588 I1.587 J0
G1 X15
G2 X16.587 Y41 I0 J-1.588
G1 Y29
X16.581 Y28.856
X14.587 Y6.922
G2 X3.429 Y6.566 I-5.587 J0.078
G3 X3.088 Y6.858 I-0.317 J-0.025
G1 X2.772 Y6.833
X2.701 Y6.828 Z-0.892
X2.634 Y6.823 Z-0.869
X2.574 Y6.818 Z-0.831
X2.524 Y6.814 Z-0.78
X2.486 Y6.811 Z-0.72
X2.463 Y6.809 Z-0.653
X2.455 Z-0.583
Z2
X2.504 Y6.176
Z-0.265 F1166.7
Z-0.733
X2.512 Z-0.803 F3500
X2.536 Y6.178 Z-0.87
X2.573 Y6.181 Z-0.93
X2.624 Y6.185 Z-0.981
X2.684 Y6.189 Z-1.019
X2.751 Y6.195 Z-1.042
X2.821 Y6.2 Z-1.05
X3.137 Y6.225
G3 X3.429 Y6.566 I-0.025 J0.317
G1 X3.42 Y6.702
X1.419 Y28.857
X1.413 Y29
Y41
G2 X3 Y42.588 I1.587 J0
G1 X15
G2 X16.587 Y41 I0 J-1.588
G1 Y29
X16.581 Y28.856
X14.587 Y6.922
G2 X3.429 Y6.566 I-5.587 J0.078
G3 X3.088 Y6.858 I-0.317 J-0.025
G1 X2.772 Y6.833
X2.701 Y6.828 Z-1.042
X2.634 Y6.823 Z-1.019
X2.574 Y6.818 Z-0.981
X2.524 Y6.814 Z-0.93
X2.486 Y6.811 Z-0.87
X2.463 Y6.809 Z-0.803
X2.455 Z-0.733
Z2
X2.504 Y6.176
Z-0.415 F1166.7
Z-0.883
X2.512 Z-0.953 F3500
X2.536 Y6.178 Z-1.02
X2.573 Y6.181 Z-1.08
X2.624 Y6.185 Z-1.131
X2.684 Y6.189 Z-1.169
X2.751 Y6.195 Z-1.192
X2.821 Y6.2 Z-1.2
X3.137 Y6.225
G3 X3.429 Y6.566 I-0.025 J0.317
G1 X3.42 Y6.702
X1.419 Y28.857
X1.413 Y29
Y41
G2 X3 Y42.588 I1.587 J0
G1 X15
G2 X16.587 Y41 I0 J-1.588
G1 Y29
X16.581 Y28.856
X14.587 Y6.922
G2 X3.429 Y6.566 I-5.587 J0.078
G3 X3.088 Y6.858 I-0.317 J-0.025
G1 X2.772 Y6.833
X2.701 Y6.828 Z-1.192
X2.634 Y6.823 Z-1.169
X2.574 Y6.818 Z-1.131
X2.524 Y6.814 Z-1.08
X2.486 Y6.811 Z-1.02
X2.463 Y6.809 Z-0.953
X2.455 Z-0.883
Z2
X2.504 Y6.176
Z-0.565 F1166.7
Z-1.033
X2.512 Z-1.103 F3500
X2.536 Y6.178 Z-1.17
X2.573 Y6.181 Z-1.23
X2.624 Y6.185 Z-1.281
X2.684 Y6.189 Z-1.319
X2.751 Y6.195 Z-1.342
X2.821 Y6.2 Z-1.35
X3.137 Y6.225
G3 X3.429 Y6.566 I-0.025 J0.317
G1 X3.42 Y6.702
X1.419 Y28.857
X1.413 Y29
Y41
G2 X3 Y42.588 I1.587 J0
G1 X15
G2 X16.587 Y41 I0 J-1.588
G1 Y29
X16.581 Y28.856
X14.587 Y6.922
G2 X3.429 Y6.566 I-5.587 J0.078
G3 X3.088 Y6.858 I-0.317 J-0.025
G1 X2.772 Y6.833
X2.701 Y6.828 Z-1.342
X2.634 Y6.823 Z-1.319
X2.574 Y6.818 Z-1.281
X2.524 Y6.814 Z-1.23
X2.486 Y6.811 Z-1.17
X2.463 Y6.809 Z-1.103
X2.455 Z-1.033
Z2
X2.504 Y6.176
Z-0.715 F1166.7
Z-1.183
X2.512 Z-1.253 F3500
X2.536 Y6.178 Z-1.32
X2.573 Y6.181 Z-1.38
X2.624 Y6.185 Z-1.431
X2.684 Y6.189 Z-1.469
X2.751 Y6.195 Z-1.492
X2.821 Y6.2 Z-1.5
X3.137 Y6.225
G3 X3.429 Y6.566 I-0.025 J0.317
G1 X3.42 Y6.702
X1.419 Y28.857
X1.413 Y29
Y41
G2 X3 Y42.588 I1.587 J0
G1 X15
G2 X16.587 Y41 I0 J-1.588
G1 Y29
X16.581 Y28.856
X14.587 Y6.922
G2 X3.429 Y6.566 I-5.587 J0.078
G3 X3.088 Y6.858 I-0.317 J-0.025
G1 X2.772 Y6.833
X2.701 Y6.828 Z-1.492
X2.634 Y6.823 Z-1.469
X2.574 Y6.818 Z-1.431
X2.524 Y6.814 Z-1.38
X2.486 Y6.811 Z-1.32
X2.463 Y6.809 Z-1.253
X2.455 Z-1.183
Z2
X2.504 Y6.176
Z-0.865 F1166.7
Z-1.333
X2.512 Z-1.403 F3500
X2.536 Y6.178 Z-1.47
X2.573 Y6.181 Z-1.53
X2.624 Y6.185 Z-1.581
X2.684 Y6.189 Z-1.619
X2.751 Y6.195 Z-1.642
X2.821 Y6.2 Z-1.65
X3.137 Y6.225
G3 X3.429 Y6.566 I-0.025 J0.317
G1 X3.42 Y6.702
X1.419 Y28.857
X1.413 Y29
Y41
G2 X3 Y42.588 I1.587 J0
G1 X15
G2 X16.587 Y41 I0 J-1.588
G1 Y29
X16.581 Y28.856
X14.587 Y6.922
G2 X3.429 Y6.566 I-5.587 J0.078
G3 X3.088 Y6.858 I-0.317 J-0.025
G1 X2.772 Y6.833
X2.701 Y6.828 Z-1.642
X2.634 Y6.823 Z-1.619
X2.574 Y6.818 Z-1.581
X2.524 Y6.814 Z-1.53
X2.486 Y6.811 Z-1.47
X2.463 Y6.809 Z-1.403
X2.455 Z-1.333
Z2
X2.504 Y6.176
Z-1.015 F1166.7
Z-1.383
X2.512 Z-1.453 F3500
X2.536 Y6.178 Z-1.52
X2.573 Y6.181 Z-1.58
X2.624 Y6.185 Z-1.631
X2.684 Y6.189 Z-1.669
X2.751 Y6.195 Z-1.692
X2.821 Y6.2 Z-1.7
X3.137 Y6.225
G3 X3.429 Y6.566 I-0.025 J0.317
G1 X3.42 Y6.702
X1.419 Y28.857
X1.413 Y29
Y41
G2 X3 Y42.588 I1.587 J0
G1 X15
G2 X16.587 Y41 I0 J-1.588
G1 Y29
X16.581 Y28.856
X14.587 Y6.922
G2 X3.429 Y6.566 I-5.587 J0.078
G3 X3.088 Y6.858 I-0.317 J-0.025
G1 X2.772 Y6.833
X2.701 Y6.828 Z-1.692
X2.634 Y6.823 Z-1.669
X2.574 Y6.818 Z-1.631
X2.524 Y6.814 Z-1.58
X2.486 Y6.811 Z-1.52
X2.463 Y6.809 Z-1.453
X2.455 Z-1.383
Z12
G0 Z15

M9
M5
M30
