(trike_topplate_contour)
(T1 D=3.175 CR=0 - ZMIN=-2 - flat end mill)
G90 G94
G17
G21
(-Attention- Property Safe Retracts is set to Clearance Height.)
(Ensure the clearance height will clear the part and or fixtures.)
(Raise the Z-axis to a safe height before starting the program.)
G0 Z15
(When using Fusion for Personal Use, the feedrate of rapid)
(moves is reduced to match the feedrate of cutting moves,)
(which can increase machining time. Unrestricted rapid moves)
(are available with a Fusion Subscription.)

(2D Contour1)
T1
S5000 M3
G17 G90 G94
G54
M8
G0 X133.437 Y37.154
Z12
G1 Z2 F5000
Z0.635 F1666.7
Z-0.383
X133.429 Y37.153 Z-0.453 F5000
X133.406 Y37.15 Z-0.52
X133.369 Y37.146 Z-0.58
X133.319 Y37.139 Z-0.631
X133.259 Y37.132 Z-0.669
X133.192 Y37.124 Z-0.692
X133.122 Y37.115 Z-0.7
X132.807 Y37.076
G3 X132.531 Y36.723 I0.039 J-0.315
G2 X132.587 Y35.797 I-7.531 J-0.926
G1 Y27
G2 X131 Y25.413 I-1.587 J0
G1 X115.588
Y1
G2 X114 Y-0.587 I-1.588 J0
G1 X18
G2 X16.413 Y1 I0 J1.587
G1 Y25.413
X1
G2 X-0.587 Y27 I0 J1.587
G1 Y35.797
G2 X-0.001 Y38.722 I7.588 J0
G1 X31.765 Y114.768
G2 X35.998 Y117.588 I4.233 J-1.768
G1 X96.002
G2 X100.235 Y114.768 I0 J-4.587
G1 X132.001 Y38.722
G2 X132.531 Y36.723 I-7.001 J-2.926
G3 X132.885 Y36.446 I0.315 J0.039
G1 X133.2 Y36.485
X133.27 Y36.494 Z-0.692
X133.336 Y36.502 Z-0.669
X133.396 Y36.509 Z-0.631
X133.446 Y36.515 Z-0.58
X133.484 Y36.52 Z-0.52
X133.507 Y36.523 Z-0.453
X133.515 Y36.524 Z-0.383
Z2
X133.437 Y37.154
Z-0.065 F1666.7
Z-1.083
X133.429 Y37.153 Z-1.153 F5000
X133.406 Y37.15 Z-1.22
X133.369 Y37.146 Z-1.28
X133.319 Y37.139 Z-1.331
X133.259 Y37.132 Z-1.369
X133.192 Y37.124 Z-1.392
X133.122 Y37.115 Z-1.4
X132.807 Y37.076
G3 X132.531 Y36.723 I0.039 J-0.315
G2 X132.587 Y35.797 I-7.531 J-0.926
G1 Y27
G2 X131 Y25.413 I-1.587 J0
G1 X115.588
Y1
G2 X114 Y-0.587 I-1.588 J0
G1 X18
G2 X16.413 Y1 I0 J1.587
G1 Y25.413
X1
G2 X-0.587 Y27 I0 J1.587
G1 Y35.797
G2 X-0.001 Y38.722 I7.588 J0
G1 X31.765 Y114.768
G2 X35.998 Y117.588 I4.233 J-1.768
G1 X96.002
G2 X100.235 Y114.768 I0 J-4.587
G1 X132.001 Y38.722
G2 X132.531 Y36.723 I-7.001 J-2.926
G3 X132.885 Y36.446 I0.315 J0.039
G1 X133.2 Y36.485
X133.27 Y36.494 Z-1.392
X133.336 Y36.502 Z-1.369
X133.396 Y36.509 Z-1.331
X133.446 Y36.515 Z-1.28
X133.484 Y36.52 Z-1.22
X133.507 Y36.523 Z-1.153
X133.515 Y36.524 Z-1.083
Z2
X133.437 Y37.154
Z-0.765 F1666.7
Z-1.683
X133.429 Y37.153 Z-1.753 F5000
X133.406 Y37.15 Z-1.82
X133.369 Y37.146 Z-1.88
X133.319 Y37.139 Z-1.931
X133.259 Y37.132 Z-1.969
X133.192 Y37.124 Z-1.992
X133.122 Y37.115 Z-2
X132.807 Y37.076
G3 X132.531 Y36.723 I0.039 J-0.315
G2 X132.587 Y35.797 I-7.531 J-0.926
G1 Y27
G2 X131 Y25.413 I-1.587 J0
G1 X115.588
Y1
G2 X114 Y-0.587 I-1.588 J0
G1 X18
G2 X16.413 Y1 I0 J1.587
G1 Y25.413
X1
G2 X-0.587 Y27 I0 J1.587
G1 Y35.797
G2 X-0.001 Y38.722 I7.588 J0
G1 X31.765 Y114.768
G2 X35.998 Y117.588 I4.233 J-1.768
G1 X96.002
G2 X100.235 Y114.768 I0 J-4.587
G1 X132.001 Y38.722
G2 X132.531 Y36.723 I-7.001 J-2.926
G3 X132.885 Y36.446 I0.315 J0.039
G1 X133.2 Y36.485
X133.27 Y36.494 Z-1.992
X133.336 Y36.502 Z-1.969
X133.396 Y36.509 Z-1.931
X133.446 Y36.515 Z-1.88
X133.484 Y36.52 Z-1.82
X133.507 Y36.523 Z-1.753
X133.515 Y36.524 Z-1.683
Z12
G0 Z15

M9
M5
M30
