(trike_chassis_contour)
(T1 D=3.175 CR=0 - ZMIN=-3 - flat end mill)
G90 G94
G17
G21
(-Attention- Property Safe Retracts is set to Clearance Height.)
(Ensure the clearance height will clear the part and or fixtures.)
(Raise the Z-axis to a safe height before starting the program.)
G0 Z15
(When using Fusion for Personal Use, the feedrate of rapid)
(moves is reduced to match the feedrate of cutting moves,)
(which can increase machining time. Unrestricted rapid moves)
(are available with a Fusion Subscription.)

(2D Contour1)
T1
S5000 M3
G17 G90 G94
G54
M8
G0 X65.683 Y165.54
Z12
G1 Z2 F5000
Z0.635 F1666.7
Z-0.433
G19 G2 Y165.223 Z-0.75 J-0.317 K0 F5000
G1 Y164.905
G17 G3 X66 Y164.587 I0.317 J0
G1 X84.007
G2 X88.236 Y161.778 I0 J-4.587
G1 X131.994 Y57.731
G2 X132.587 Y54.79 I-6.994 J-2.941
G1 Y46
G2 X131 Y44.412 I-1.587 J0
G1 X115.588
Y1
G2 X114 Y-0.587 I-1.588 J0
G1 X18
G2 X16.413 Y1 I0 J1.587
G1 Y44.412
X1
G2 X-0.587 Y46 I0 J1.588
G1 Y54.79
G2 X0.006 Y57.731 I7.587 J0
G1 X43.764 Y161.778
G2 X47.993 Y164.587 I4.229 J-1.778
G1 X66
G3 X66.317 Y164.905 I0 J0.318
G1 Y165.223
G19 G3 Y165.54 Z-0.433 J0 K0.317
G1 Z2
X65.683
Z-0.115 F1666.7
Z-1.183
G2 Y165.223 Z-1.5 J-0.317 K0 F5000
G1 Y164.905
G17 G3 X66 Y164.587 I0.317 J0
G1 X84.007
G2 X88.236 Y161.778 I0 J-4.587
G1 X131.994 Y57.731
G2 X132.587 Y54.79 I-6.994 J-2.941
G1 Y46
G2 X131 Y44.412 I-1.587 J0
G1 X115.588
Y1
G2 X114 Y-0.587 I-1.588 J0
G1 X18
G2 X16.413 Y1 I0 J1.587
G1 Y44.412
X1
G2 X-0.587 Y46 I0 J1.588
G1 Y54.79
G2 X0.006 Y57.731 I7.587 J0
G1 X43.764 Y161.778
G2 X47.993 Y164.587 I4.229 J-1.778
G1 X66
G3 X66.317 Y164.905 I0 J0.318
G1 Y165.223
G19 G3 Y165.54 Z-1.183 J0 K0.317
G1 Z2
X65.683
Z-0.865 F1666.7
Z-1.933
G2 Y165.223 Z-2.25 J-0.317 K0 F5000
G1 Y164.905
G17 G3 X66 Y164.587 I0.317 J0
G1 X84.007
G2 X88.236 Y161.778 I0 J-4.587
G1 X131.994 Y57.731
G2 X132.587 Y54.79 I-6.994 J-2.941
G1 Y46
G2 X131 Y44.412 I-1.587 J0
G1 X115.588
Y1
G2 X114 Y-0.587 I-1.588 J0
G1 X18
G2 X16.413 Y1 I0 J1.587
G1 Y44.412
X1
G2 X-0.587 Y46 I0 J1.588
G1 Y54.79
G2 X0.006 Y57.731 I7.587 J0
G1 X43.764 Y161.778
G2 X47.993 Y164.587 I4.229 J-1.778
G1 X66
G3 X66.317 Y164.905 I0 J0.318
G1 Y165.223
G19 G3 Y165.54 Z-1.933 J0 K0.317
G1 Z2
X65.683
Z-1.615 F1666.7
Z-2.683
G2 Y165.223 Z-3 J-0.317 K0 F5000
G1 Y164.905
G17 G3 X66 Y164.587 I0.317 J0
G1 X84.007
G2 X88.236 Y161.778 I0 J-4.587
G1 X131.994 Y57.731
G2 X132.587 Y54.79 I-6.994 J-2.941
G1 Y46
G2 X131 Y44.412 I-1.587 J0
G1 X115.588
Y1
G2 X114 Y-0.587 I-1.588 J0
G1 X18
G2 X16.413 Y1 I0 J1.587
G1 Y44.412
X1
G2 X-0.587 Y46 I0 J1.588
G1 Y54.79
G2 X0.006 Y57.731 I7.587 J0
G1 X43.764 Y161.778
G2 X47.993 Y164.587 I4.229 J-1.778
G1 X66
G3 X66.317 Y164.905 I0 J0.318
G1 Y165.223
G19 G3 Y165.54 Z-2.683 J0 K0.318
G1 Z12
G17
G0 Z15

M9
M5
M30
